packages/core/src/svgs/tokens/branded/TARA.svg

<svg width="24" height="24" viewBox="0 0 24 24" fill="none" xmlns="http://www.w3.org/2000/svg">
<path fill-rule="evenodd" clip-rule="evenodd" d="M12.2953 2.00193C11.5303 1.98757 9.98716 2.04819 9.93465 2.40382C9.88215 2.75883 11.4865 2.80509 12.2947 2.78445C13.049 2.76634 14.5417 2.66571 14.4804 2.4032C14.4192 2.14131 12.9984 2.02632 12.2953 2.00193ZM17.2868 3.98324C16.8261 4.38826 17.5742 5.6883 18.006 6.28769C18.4123 6.75145 19.2942 7.73335 19.7867 7.28771C20.2786 6.84208 19.6861 5.67142 19.3024 5.22391C18.8224 4.64139 17.7473 3.57822 17.2868 3.98324ZM6.37451 11.6391C6.37451 11.0735 6.64952 10.0766 7.63455 10.0235C8.61895 9.96966 8.87146 11.0085 8.87458 11.5341C8.85145 11.9866 8.58707 12.9154 7.7133 13.0073C6.83889 13.0985 6.37451 12.1534 6.37451 11.6391ZM12.0684 21.6044C12.0815 21.4399 12.1297 21.1063 12.2097 21.0831C12.3096 21.0549 12.7191 21.0631 12.7191 21.1356C12.7191 21.1938 12.6128 21.4724 12.5603 21.6044L13.4121 21.6244L13.266 21.8225H12.4097L12.2097 21.9999H11.9721L11.9972 21.8225C11.7172 21.8319 11.1534 21.8413 11.1371 21.8019C11.1159 21.7538 11.1121 21.5799 11.1622 21.5799C11.2021 21.5799 11.7829 21.5963 12.0684 21.6044ZM6.79702 3.58948C6.06575 3.36197 5.07822 4.37825 4.67571 4.91514C4.32757 5.43079 3.79756 6.55394 4.4632 6.9202C5.12947 7.28646 5.95949 6.46207 6.29139 6.00455C6.76451 5.29391 7.52767 3.8176 6.79702 3.58948ZM2.19313 11.9409C2.18189 11.8747 2.29564 10.5322 2.34126 10.2352C2.47377 10.3897 2.76003 10.6891 2.84128 10.6541C2.94441 10.6097 3.11504 9.93845 3.04628 9.74026C2.99191 9.58159 2.71253 9.41023 2.58002 9.34402C2.71253 8.92589 3.03753 7.96648 3.27379 7.47335C3.31193 7.38584 3.34442 7.22958 3.17129 7.30833C2.95566 7.40709 2.06814 8.849 2 11.9409C2.05438 12.1085 2.16814 12.3435 2.19313 11.9409ZM11.9997 5.69829V6.37519H11.5065C11.4466 6.37519 11.3678 6.48581 11.3621 6.5977C11.3558 6.70957 11.4565 6.83332 11.5065 6.83332H11.9997V7.4821C11.9997 7.56085 12.0916 7.63335 12.1953 7.63898C12.2984 7.64522 12.3596 7.55771 12.3752 7.51147V6.83332H12.9003C12.9716 6.81645 13.1129 6.7452 13.1066 6.5977C13.1003 6.4502 12.9666 6.39456 12.9003 6.37519H12.329V5.69829C12.3115 5.64455 12.2678 5.54829 12.1647 5.54266C12.061 5.53641 12.0072 5.63892 11.9997 5.69829ZM3.11817 16.4692C2.74316 15.8905 2.14875 14.5917 2.77128 14.0216C3.3938 13.451 4.23569 14.546 4.5782 15.1648C4.89821 15.738 5.39572 17.1361 4.93947 17.5986C4.4832 18.0612 3.54442 16.9936 3.11817 16.4692ZM19.7593 15.0642L19.7648 15.053C19.813 14.9735 19.8649 14.8816 19.9212 14.7829C20.2731 14.1685 20.768 13.3035 21.213 13.6467C21.73 14.0448 21.4344 15.4949 21.1987 16.1055C20.9455 16.7636 20.0149 17.6693 19.5693 17.4761C18.7911 17.1392 19.4662 15.6929 19.7593 15.0642ZM16.7205 10.9878L16.4336 9.37523C16.4173 9.23275 16.4523 8.94025 16.7205 8.90713C16.8115 8.89302 16.9045 8.9109 16.9839 8.95774C17.0632 9.00458 17.1239 9.07749 17.1555 9.16406L17.5223 10.7979C17.8105 10.7446 18.433 10.6259 18.6161 10.5765C18.8443 10.5152 19.0461 10.6997 19.1148 10.9265C19.1837 11.1515 19.1999 11.3728 18.8548 11.5373C18.5786 11.6685 17.943 11.784 17.6598 11.8247L17.7348 13.4941C17.7448 13.6128 17.6836 13.861 17.3524 13.9103C17.021 13.9598 16.8917 13.6948 16.8692 13.556V11.9065C16.4779 11.9716 15.6454 12.1017 15.446 12.1017C15.196 12.1017 14.9147 11.8091 14.9098 11.6084C14.9041 11.4085 15.1272 11.0897 15.3716 11.0847C15.5673 11.0804 16.3522 11.0184 16.7205 10.9878ZM20.8824 7.40835C21.8649 8.749 22.0338 11.0547 21.995 12.0397C21.928 12.3322 21.8968 12.1616 21.89 12.0397L21.7431 10.2721C21.6625 10.3878 21.4825 10.6221 21.4068 10.6377C21.3412 10.6522 21.3163 10.5472 21.2818 10.4022C21.2665 10.3347 21.2489 10.2678 21.2287 10.2015C21.17 10.014 21.2037 9.78532 21.2287 9.69345L21.5018 9.32783C21.3193 8.95901 20.9269 8.11524 20.8087 7.69273C20.6912 7.27021 20.8087 7.32709 20.8824 7.40835ZM12.2554 18.8736C13.3254 18.8736 14.1928 18.0343 14.1928 16.9986C14.1928 15.963 13.3254 15.1236 12.2554 15.1236C11.1846 15.1236 10.3172 15.963 10.3172 16.9986C10.3172 18.0343 11.1852 18.8736 12.2554 18.8736ZM9.31587 20.823C9.2008 20.9906 8.81583 20.9394 8.45456 20.7087C8.09394 20.4774 7.89455 20.1544 8.00956 19.9868C8.12394 19.8187 8.50957 19.87 8.8702 20.1011C9.23084 20.3324 9.4302 20.655 9.31587 20.823ZM15.9505 20.6756C16.298 20.4268 16.4791 20.0943 16.3554 19.9318C16.2316 19.7705 15.8491 19.8413 15.5017 20.0906C15.1542 20.3393 14.9729 20.6718 15.0966 20.8344C15.2204 20.9956 15.6029 20.925 15.9505 20.6756Z" fill="#54BC65"/>
</svg>

<svg xmlns="http://www.w3.org/2000/svg" width="24" height="24" fill="none" viewBox="0 0 24 24">
    <path fill="#54BC65" fill-rule="evenodd" d="M12.295 2.002c-.765-.014-2.308.046-2.36.402-.053.355 1.551.401 2.36.38.754-.018 2.247-.118 2.185-.38-.06-.263-1.482-.378-2.185-.402m4.992 1.981c-.46.405.287 1.705.719 2.305.406.463 1.288 1.445 1.78 1 .493-.446-.1-1.617-.484-2.064-.48-.583-1.555-1.646-2.015-1.24M6.375 11.64c0-.566.275-1.562 1.26-1.615.984-.054 1.236.985 1.24 1.51-.024.453-.288 1.381-1.162 1.473-.874.091-1.338-.854-1.338-1.368m5.693 9.965c.014-.164.062-.498.142-.52.1-.03.51-.02.51.052 0 .058-.107.336-.16.468l.852.02-.146.199h-.856l-.2.177h-.238l.025-.177c-.28.009-.844.018-.86-.021-.021-.048-.025-.222.025-.222.04 0 .62.016.906.024M6.797 3.59c-.731-.227-1.719.79-2.121 1.326-.348.516-.878 1.639-.213 2.005.666.366 1.496-.458 1.828-.915.474-.711 1.237-2.187.506-2.416m-4.604 8.352c-.011-.066.103-1.409.148-1.706.133.155.419.454.5.42.103-.045.274-.717.205-.915-.054-.158-.333-.33-.466-.396.133-.418.458-1.378.694-1.87.038-.088.07-.244-.103-.166-.215.1-1.103 1.541-1.171 4.633.054.167.168.402.193 0M12 5.698v.677h-.493c-.06 0-.14.11-.145.223-.006.112.095.235.145.235H12v.65c0 .078.092.15.195.156s.165-.081.18-.128v-.678h.525c.072-.017.213-.088.207-.235-.007-.148-.14-.203-.207-.223h-.571v-.677c-.018-.053-.061-.15-.164-.155-.104-.007-.158.096-.165.155M3.118 16.47c-.375-.579-.97-1.877-.347-2.447s1.465.524 1.807 1.143c.32.573.818 1.971.361 2.434-.456.462-1.395-.605-1.82-1.13m16.641-1.405.006-.011q.072-.12.156-.27c.352-.614.847-1.48 1.292-1.136.517.398.221 1.848-.014 2.458-.254.659-1.184 1.564-1.63 1.371-.778-.337-.103-1.783.19-2.412m-3.038-4.076-.287-1.613c-.017-.142.018-.435.287-.468a.4.4 0 0 1 .434.257l.367 1.634c.289-.053.911-.172 1.094-.222.228-.06.43.124.499.35s.085.447-.26.611c-.276.131-.912.247-1.195.288l.075 1.67c.01.118-.051.366-.383.415-.331.05-.46-.215-.483-.354v-1.65c-.391.066-1.224.196-1.423.196-.25 0-.531-.293-.536-.494-.006-.2.217-.518.462-.523.195-.005.98-.067 1.349-.097m4.161-3.58c.983 1.341 1.152 3.647 1.113 4.632-.067.292-.098.122-.105 0l-.147-1.768c-.08.116-.26.35-.336.366-.066.014-.09-.09-.125-.236a3 3 0 0 0-.053-.2 1 1 0 0 1 0-.509l.273-.365c-.183-.369-.575-1.213-.693-1.635-.118-.423 0-.366.073-.285m-8.627 11.466c1.07 0 1.938-.84 1.938-1.875s-.868-1.875-1.938-1.875-1.938.839-1.938 1.875c0 1.035.868 1.875 1.938 1.875m-2.94 1.949c-.114.168-.5.116-.86-.114-.361-.232-.56-.555-.445-.722.114-.168.5-.117.86.114s.56.554.446.722m6.636-.147c.347-.25.528-.582.404-.744-.123-.162-.506-.09-.853.159-.348.248-.53.58-.405.743.123.162.506.091.854-.158" clip-rule="evenodd"/>
</svg>
